_includes/icons/color-tick-box.svg

<svg fill="#666" height="50" viewBox="0 0 48 48" width="50" xmlns="http://www.w3.org/2000/svg"><path d="m36 42h-24c-3.3125 0-6-2.6875-6-6v-24c0-3.3125 2.6875-6 6-6h24c3.3125 0 6 2.6875 6 6v24c0 3.3125-2.6875 6-6 6z" fill="#c8e6c9"/><path d="m34.585938 14.585938-13.570313 13.585937-5.601562-5.585937-2.828125 2.828125 8.433593 8.414062 16.394532-16.414062z" fill="#4caf50"/></svg>

<svg xmlns="http://www.w3.org/2000/svg" viewBox="0 0 48 48" width="50" height="50" fill="#666"><path d="M 36 42 L 12 42 C 8.6875 42 6 39.3125 6 36 L 6 12 C 6 8.6875 8.6875 6 12 6 L 36 6 C 39.3125 6 42 8.6875 42 12 L 42 36 C 42 39.3125 39.3125 42 36 42 Z" fill="#c8e6c9"/><path d="M 34.585938 14.585938 L 21.015625 28.171875 L 15.414063 22.585938 L 12.585938 25.414063 L 21.019531 33.828125 L 37.414063 17.414063 Z" fill="#4caf50"/></svg>
